icons/pause-outline.svg

<svg xmlns="http://www.w3.org/2000/svg" width="24" height="24" viewBox="0 0 24 24">
  <path d="M8,3 C9.65685425,3 11,4.34314575 11,6 L11,6 L11,18 C11,19.6568542 9.65685425,21 8,21 C6.34314575,21 5,19.6568542 5,18 L5,18 L5,6 C5,4.34314575 6.34314575,3 8,3 Z M16,3 C17.6568542,3 19,4.34314575 19,6 L19,6 L19,18 C19,19.6568542 17.6568542,21 16,21 C14.3431458,21 13,19.6568542 13,18 L13,18 L13,6 C13,4.34314575 14.3431458,3 16,3 Z M8,5 C7.44771525,5 7,5.44771525 7,6 L7,6 L7,18 C7,18.5522847 7.44771525,19 8,19 C8.55228475,19 9,18.5522847 9,18 L9,18 L9,6 C9,5.44771525 8.55228475,5 8,5 Z M16,5 C15.4477153,5 15,5.44771525 15,6 L15,6 L15,18 C15,18.5522847 15.4477153,19 16,19 C16.5522847,19 17,18.5522847 17,18 L17,18 L17,6 C17,5.44771525 16.5522847,5 16,5 Z"/>
</svg>

<svg xmlns="http://www.w3.org/2000/svg" viewBox="0 0 24 24">
  <path d="M8 3a3 3 0 0 1 3 3v12a3 3 0 0 1-6 0V6a3 3 0 0 1 3-3zm8 0a3 3 0 0 1 3 3v12a3 3 0 0 1-6 0V6a3 3 0 0 1 3-3zM8 5a1 1 0 0 0-1 1v12a1 1 0 0 0 2 0V6a1 1 0 0 0-1-1zm8 0a1 1 0 0 0-1 1v12a1 1 0 0 0 2 0V6a1 1 0 0 0-1-1z"/>
</svg>
